packages/core/src/svgs/kilt.svg

<svg width="24" height="24" viewBox="0 0 24 24" fill="none" xmlns="http://www.w3.org/2000/svg">
<g clip-path="url(#clip0_31_12601)">
<path d="M0 0H24V24H0V0Z" fill="#8C175B"/>
<path d="M8.57153 5.14307H11.143V13.3716L10.5001 12.0002L11.143 15.4074V18.8574H8.57153V5.14307Z" fill="#F0F3FA"/>
<path d="M14.0828 5.14307H16.7142L13.3456 11.1431H10.7142L14.0828 5.14307ZM13.8556 18.8574H16.7142L13.0413 12.0002H10.2856L13.8556 18.8574ZM6.82704 11.1431H16.3156C16.5385 11.1431 16.7142 11.3402 16.7142 11.5716C16.7142 11.8116 16.5299 12.0002 16.3156 12.0002H6.82704C6.60418 12.0002 6.42847 11.8031 6.42847 11.5716C6.42847 11.3402 6.61275 11.1431 6.82704 11.1431Z" fill="#F0F3FA"/>
</g>
<defs>
<clipPath id="clip0_31_12601">
<rect width="24" height="24" fill="white"/>
</clipPath>
</defs>
</svg>

<svg xmlns="http://www.w3.org/2000/svg" width="24" height="24" fill="none" viewBox="0 0 24 24"><g clip-path="url(#a)"><path fill="#8C175B" d="M0 0h24v24H0z"/><path fill="#F0F3FA" d="M8.572 5.143h2.571v8.229L10.5 12l.643 3.407v3.45H8.572z"/><path fill="#F0F3FA" d="M14.083 5.143h2.631l-3.368 6h-2.632zm-.227 13.714h2.858L13.041 12h-2.755zm-7.029-7.714h9.489c.223 0 .398.197.398.429 0 .24-.184.428-.398.428H6.827c-.223 0-.399-.197-.399-.428 0-.232.185-.429.399-.429"/></g><defs><clipPath id="a"><path fill="#fff" d="M0 0h24v24H0z"/></clipPath></defs></svg>
